svg/thumbs-down-sharp.svg

<?xml version="1.0" encoding="UTF-8" standalone="no"?>
<svg
   xmlns:dc="http://purl.org/dc/elements/1.1/"
   xmlns:cc="http://creativecommons.org/ns#"
   xmlns:rdf="http://www.w3.org/1999/02/22-rdf-syntax-ns#"
   xmlns:svg="http://www.w3.org/2000/svg"
   xmlns="http://www.w3.org/2000/svg"
   xmlns:sodipodi="http://sodipodi.sourceforge.net/DTD/sodipodi-0.dtd"
   xmlns:inkscape="http://www.inkscape.org/namespaces/inkscape"
   class="ionicon"
   viewBox="0 0 512 512"
   version="1.1"
   id="svg841"
   sodipodi:docname="thumbs-down-sharp.svg"
   inkscape:version="1.0.2 (e86c8708, 2021-01-15)">
  <metadata
     id="metadata847">
    <rdf:RDF>
      <cc:Work
         rdf:about="">
        <dc:format>image/svg+xml</dc:format>
        <dc:type
           rdf:resource="http://purl.org/dc/dcmitype/StillImage" />
      </cc:Work>
    </rdf:RDF>
  </metadata>
  <defs
     id="defs845" />
  <sodipodi:namedview
     pagecolor="#ffffff"
     bordercolor="#666666"
     borderopacity="1"
     objecttolerance="10"
     gridtolerance="10"
     guidetolerance="10"
     inkscape:pageopacity="0"
     inkscape:pageshadow="2"
     inkscape:window-width="776"
     inkscape:window-height="480"
     id="namedview843"
     showgrid="false"
     inkscape:zoom="0.3"
     inkscape:cx="256"
     inkscape:cy="256"
     inkscape:window-x="375"
     inkscape:window-y="1149"
     inkscape:window-maximized="0"
     inkscape:current-layer="svg841"
     inkscape:document-rotation="0" />
  <title
     id="title833">Thumbs Down</title>
  <path
     id="path835"
     style="color:#000000;font-style:normal;font-variant:normal;font-weight:normal;font-stretch:normal;font-size:medium;line-height:normal;font-family:sans-serif;font-variant-ligatures:normal;font-variant-position:normal;font-variant-caps:normal;font-variant-numeric:normal;font-variant-alternates:normal;font-variant-east-asian:normal;font-feature-settings:normal;font-variation-settings:normal;text-indent:0;text-align:start;text-decoration:none;text-decoration-line:none;text-decoration-style:solid;text-decoration-color:#000000;letter-spacing:normal;word-spacing:normal;text-transform:none;writing-mode:lr-tb;direction:ltr;text-orientation:mixed;dominant-baseline:auto;baseline-shift:baseline;text-anchor:start;white-space:normal;shape-padding:0;shape-margin:0;inline-size:0;clip-rule:nonzero;display:inline;overflow:visible;visibility:visible;isolation:auto;mix-blend-mode:normal;color-interpolation:sRGB;color-interpolation-filters:linearRGB;solid-color:#000000;solid-opacity:1;vector-effect:none;fill:#000000;fill-opacity:1;fill-rule:nonzero;stroke-width:1;stroke-linecap:butt;stroke-linejoin:miter;stroke-miterlimit:4;stroke-dasharray:none;stroke-dashoffset:0;stroke-opacity:1;color-rendering:auto;image-rendering:auto;shape-rendering:auto;text-rendering:auto;enable-background:accumulate;stop-color:#000000;stop-opacity:1;stroke:none;opacity:1"
     d="M 83.679688 32 C 64.679688 32 52.179219 45.520156 48.449219 64.160156 L 16 206.41992 L 16 280 C 16 302.06 34 318 56 320 L 212.05078 332 L 189.05078 421.40039 C 182.97078 448.00039 189.74945 463.26953 211.43945 470.01953 L 246.13086 479.86914 C 247.81562 480.31564 249.594 479.6211 250.5293 478.15039 L 379.5293 275.81055 C 380.984 273.4445 383.56236 272.00173 386.33984 272 L 496 272 L 496 64 L 378.39062 64 C 373.23131 64.0011 368.10585 63.169553 363.21094 61.539062 L 286.91016 36.109375 C 278.75254 33.388496 270.20879 32.001313 261.60938 32 L 83.679688 32 z M 337.85938 343.2207 A 2.53 2.53 0 0 0 337.73047 343.43945 L 337.85938 343.2207 z " />
</svg>

<svg xmlns="http://www.w3.org/2000/svg" width="512" height="512" viewBox="0 0 512 512"><title>ionicons-v5-k</title><path d="M56,320l156.05,12-23,89.4c-6.08,26.6.7,41.87,22.39,48.62l34.69,9.85a4,4,0,0,0,4.4-1.72l129-202.34a8,8,0,0,1,6.81-3.81H496V64H378.39a48,48,0,0,1-15.18-2.46l-76.3-25.43A80,80,0,0,0,261.61,32H83.68c-19,0-31.5,13.52-35.23,32.16L16,206.42V280C16,302.06,34,318,56,320Z"/><path d="M378.45,273.93A15.84,15.84,0,0,1,386,272h0a15.93,15.93,0,0,0-7.51,1.91Z" style="fill:none"/><path d="M337.86,343.22l-.13.22a2.53,2.53,0,0,1,.13-.22c20.5-35.51,30.36-55,33.82-62h0C368.21,288.28,358.34,307.73,337.86,343.22Z" style="fill:none"/><path d="M372.66,279.16l-1,2a16.29,16.29,0,0,1,6.77-7.26A16.48,16.48,0,0,0,372.66,279.16Z"/></svg>
